icons/svg/data.svg

﻿<?xml version="1.0" encoding="utf-8"?>
<!DOCTYPE svg PUBLIC "-//W3C//DTD SVG 1.1//EN" "http://www.w3.org/Graphics/SVG/1.1/DTD/svg11.dtd">
<svg xmlns="http://www.w3.org/2000/svg" xmlns:xlink="http://www.w3.org/1999/xlink" version="1.1" baseProfile="full" width="24" height="24" viewBox="0 0 24.00 24.00" enable-background="new 0 0 24.00 24.00" xml:space="preserve">
	<path fill="#000000" fill-opacity="1" stroke-width="1.33333" stroke-linejoin="miter" d="M 13.0004,2.00054L 13.0004,5.02898C 16.3922,5.51567 19.0001,8.42412 19.0001,11.9498C 19.0001,12.8451 18.8248,13.6983 18.5182,14.4855L 21.1189,16.0195C 21.6764,14.7746 22.0001,13.402 22.0001,11.9498C 22.0001,6.76616 18.0543,2.5042 13.0004,2.00054M 11.0003,2.00005C 5.94204,2.49895 2.00002,6.76238 2.00002,11.9498C 2.00002,17.4727 6.46853,21.9497 11.9949,21.9497C 15.3054,21.9497 18.2315,20.3365 20.0521,17.8606L 17.4561,16.3295C 16.1737,17.9257 14.2083,18.9498 12.0001,18.9498C 8.13308,18.9498 5.00014,15.8154 5.00014,11.9498C 5.00014,8.42412 7.60805,5.51567 11.0003,5.02898L 11.0003,2.00005"/>
</svg>

<svg xmlns="http://www.w3.org/2000/svg" version="1.1" baseProfile="full" width="24" height="24" viewBox="0 0 24.00 24.00" xml:space="preserve"><path fill="#000" fill-opacity="1" stroke-width="1.333" stroke-linejoin="miter" d="M13 2v3.03c3.392.486 6 3.394 6 6.92 0 .895-.175 1.748-.482 2.536l2.6 1.534c.558-1.245.882-2.618.882-4.07 0-5.184-3.946-9.446-9-9.95m-2 0c-5.058.5-9 4.762-9 9.95 0 5.523 4.47 10 9.995 10 3.31 0 6.237-1.613 8.057-4.09l-2.596-1.53c-1.282 1.596-3.248 2.62-5.456 2.62-3.867 0-7-3.135-7-7 0-3.526 2.608-6.434 6-6.92V2"/></svg>
